resources/svg/new-window.svg

<svg viewBox="0 0 24 24"><path fill="none" stroke="currentColor" stroke-width="2" d="M11 9h8m-4 4V5m2 12v6H1V7h6m0-6h16v16H7V1z"/></svg>

<svg xmlns="http://www.w3.org/2000/svg" viewBox="0 0 24 24" fill="currentColor"><path fill="none" stroke="currentColor" stroke-width="2" d="M11,9 L19,9 M15,13 L15,5 M17,17 L17,23 L1,23 L1,7 L1,7 L7,7 M7,1 L23,1 L23,17 L7,17 L7,1 Z"/></svg>
